src/icons/classification-similar.icon.svg

<svg width="24px" height="24px" viewBox="0 0 24 24" version="1.1" xmlns="http://www.w3.org/2000/svg" xmlns:xlink="http://www.w3.org/1999/xlink">
    <path d="M12,22 C17.5228475,22 22,17.5228475 22,12 C22,6.4771525 17.5228475,2 12,2 C6.4771525,2 2,6.4771525 2,12 C2,17.5228475 6.4771525,22 12,22 Z" id="bg_icon" fill="#D6003A"></path>
    <path d="M15.3880551,14.0891242 C15.3880551,14.8354273 15.1195031,15.4234148 14.582391,15.8531044 C14.045279,16.2827941 13.2980448,16.4976357 12.3406661,16.4976357 C11.4586716,16.4976357 10.6784573,16.3317931 10,16.0001028 L10,14.3718133 C10.5578427,14.620581 11.0299289,14.7958465 11.4162726,14.8976151 C11.8026164,14.9993837 12.1559743,15.0502673 12.4763569,15.0502673 C12.8608161,15.0502673 13.1557521,14.9767688 13.3611739,14.8297697 C13.5665957,14.6827706 13.6693051,14.4641599 13.6693051,14.1739309 C13.6693051,14.011855 13.6240753,13.867685 13.5336143,13.7414165 C13.4431533,13.6151481 13.3102908,13.493593 13.1350226,13.3767475 C12.9597545,13.2599021 12.6026274,13.0733291 12.0636308,12.817023 C11.558557,12.579563 11.1797573,12.3515293 10.9272204,12.1329153 C10.6746835,11.9143013 10.4730339,11.6598836 10.3222656,11.3696546 C10.1714973,11.0794256 10.0961143,10.7402021 10.0961143,10.3519737 C10.0961143,9.62074744 10.343936,9.04595193 10.8395868,8.6275699 C11.3352375,8.20918788 12.0202807,8 12.8947368,8 C13.3244265,8 13.7343217,8.05088354 14.1244346,8.15265214 C14.5145476,8.25442074 14.9225582,8.39764847 15.3484786,8.58233964 L14.7831003,9.94490132 C14.3421031,9.76397936 13.9774377,9.6377128 13.6890933,9.56609786 C13.400749,9.49448292 13.1171204,9.45867599 12.838199,9.45867599 C12.5065088,9.45867599 12.2520911,9.53594358 12.0749383,9.69048109 C11.8977856,9.84501859 11.8092105,10.0466682 11.8092105,10.2954359 C11.8092105,10.4499734 11.8450175,10.5847205 11.9166324,10.6996813 C11.9882473,10.8146422 12.1022642,10.9258321 12.2586863,11.0332545 C12.4151084,11.1406769 12.7854275,11.3338459 13.3696546,11.6127673 C14.1423421,11.9821496 14.6719078,12.3524687 14.9583676,12.7237356 C15.2448274,13.0950025 15.3880551,13.5501275 15.3880551,14.0891242 Z" id="S" fill="#FFFFFF"></path>
</svg>

<svg xmlns="http://www.w3.org/2000/svg" viewBox="0 0 24 24"><path d="M12 22c5.523 0 10-4.477 10-10S17.523 2 12 2 2 6.477 2 12s4.477 10 10 10z" fill="#D6003A"/><path d="M15.388 14.09c0 .745-.268 1.333-.806 1.763-.537.43-1.284.645-2.241.645-.882 0-1.663-.166-2.341-.498v-1.628c.558.249 1.03.424 1.416.526.387.101.74.152 1.06.152.385 0 .68-.073.885-.22.206-.147.308-.366.308-.656a.724.724 0 00-.135-.433 1.518 1.518 0 00-.399-.364c-.175-.117-.532-.304-1.071-.56-.505-.237-.884-.465-1.137-.684a2.568 2.568 0 01-.605-.763c-.15-.29-.226-.63-.226-1.018 0-.731.248-1.306.744-1.724.495-.419 1.18-.628 2.055-.628.43 0 .84.05 1.23.153.39.101.798.245 1.223.43l-.565 1.362a8.272 8.272 0 00-1.094-.379 3.521 3.521 0 00-.85-.107c-.332 0-.587.077-.764.231a.765.765 0 00-.266.605c0 .155.036.29.108.405.071.115.185.226.342.333.156.108.526.3 1.11.58.773.37 1.303.74 1.59 1.11.286.372.43.827.43 1.366z" fill="#FFF"/></svg>
